X:1
T:Praha, 887.887.88
T:Praha, 887.887.88
T:Johann Schop (1590-1664), harm J. S. Bach
T:Public Domain Courtesy of the Cyber Hymnal™
C:Johann Schop (1590-1664), harm J. S. Bach
Z:Public Domain
Z:Courtesy of the Cyber Hymnal™
%%score 1 2
L:1/8
Q:1/4=105
M:4/4
K:E
V:1 treble 
V:2 bass 
V:1
|: EF | G3 A B2 B2 | c2 d2 e2 z E | G3 A B2 B2 | A2 G2 F2 z G | GA B2 A2 GF | F3 E E2 :| B2 | %8
 F2 G2 A2 A2 | G3 F F2 z B | c3 d e2 G2 | F3 E E2 |] %12
V:2
|: E,,2 | E,2 F,2 G,2 E,2 | A,2 F,2 E,4 | E,2 F,2 G,2 E,2 | D,2 E,2 B,,2 E,D, | %5
 C,2 G,,2 F,,2 E,,2 | B,,4 E,2 :| E,,2 | B,,2 G,,2 F,,4 | C,4 F,2 G,2 | A,2 F,2 G,2 E,2 | %11
 B,,4 E,2 |] %12

